X: 40500
T: Tommy Coen's
R: reel
M: 4/4
K: Edorian
|:D|E2BE E/E/EBE|D2AD BDAD|E2BE E/E/EBE|DEFA BFAF|
E2BE E/E/EBE|D2AD BDAD|EDB,C DEFA|BFAF E3:|
|:A|Beed ~e3c|d2fd Adfd|Beed ~e3c|dBAF DEFA|
Beed ~e3c|d2fd Adfd|~B3c dfec|1 dBAF EFG:|2 dBAF E3||

